X: 1
T: Bridal, The
M: 6/8
L: 1/8
R: jig
K: Gmaj
|:G2G BGB|def g2f|eAA dBG|FAG FED|
G2G BGB|def g2f|eAA dBG|FAF G2D:|
|:E2e edB|def g2a|b2g agf|ggg fdB|
e2e edB|def g2a|bag agf|gee e3:|
